public/img/local_shipping.svg

<svg width="38" height="38" viewBox="0 0 38 38" fill="none" xmlns="http://www.w3.org/2000/svg">
<mask id="mask0_138_842" style="mask-type:alpha" maskUnits="userSpaceOnUse" x="0" y="0" width="38" height="38">
<rect width="38" height="38" fill="#D9D9D9"/>
</mask>
<g mask="url(#mask0_138_842)">
<path d="M9.49943 31.6665C8.17999 31.6665 7.05846 31.2047 6.13485 30.2811C5.21124 29.3575 4.74943 28.236 4.74943 26.9165H1.58276V9.49986C1.58276 8.62902 1.89283 7.88354 2.51297 7.2634C3.13311 6.64326 3.8786 6.33319 4.74943 6.33319H26.9161V12.6665H31.6661L36.4161 18.9999V26.9165H33.2494C33.2494 28.236 32.7876 29.3575 31.864 30.2811C30.9404 31.2047 29.8189 31.6665 28.4994 31.6665C27.18 31.6665 26.0585 31.2047 25.1348 30.2811C24.2112 29.3575 23.7494 28.236 23.7494 26.9165H14.2494C14.2494 28.236 13.7876 29.3575 12.864 30.2811C11.9404 31.2047 10.8189 31.6665 9.49943 31.6665ZM9.49943 28.4998C9.94804 28.4998 10.3241 28.3481 10.6276 28.0446C10.931 27.7412 11.0828 27.3651 11.0828 26.9165C11.0828 26.4679 10.931 26.0919 10.6276 25.7884C10.3241 25.4849 9.94804 25.3332 9.49943 25.3332C9.05082 25.3332 8.67478 25.4849 8.3713 25.7884C8.06783 26.0919 7.9161 26.4679 7.9161 26.9165C7.9161 27.3651 8.06783 27.7412 8.3713 28.0446C8.67478 28.3481 9.05082 28.4998 9.49943 28.4998ZM4.74943 23.7499H6.0161C6.46471 23.2749 6.97929 22.8922 7.55985 22.6019C8.1404 22.3117 8.78693 22.1665 9.49943 22.1665C10.2119 22.1665 10.8585 22.3117 11.439 22.6019C12.0196 22.8922 12.5342 23.2749 12.9828 23.7499H23.7494V9.49986H4.74943V23.7499ZM28.4994 28.4998C28.948 28.4998 29.3241 28.3481 29.6276 28.0446C29.931 27.7412 30.0828 27.3651 30.0828 26.9165C30.0828 26.4679 29.931 26.0919 29.6276 25.7884C29.3241 25.4849 28.948 25.3332 28.4994 25.3332C28.0508 25.3332 27.6748 25.4849 27.3713 25.7884C27.0678 26.0919 26.9161 26.4679 26.9161 26.9165C26.9161 27.3651 27.0678 27.7412 27.3713 28.0446C27.6748 28.3481 28.0508 28.4998 28.4994 28.4998ZM26.9161 20.5832H33.6453L30.0828 15.8332H26.9161V20.5832Z" fill="#33B148"/>
</g>
</svg>

<svg xmlns="http://www.w3.org/2000/svg" width="38" height="38" fill="none"><mask id="a" width="38" height="38" x="0" y="0" maskUnits="userSpaceOnUse" style="mask-type:alpha"><path fill="#D9D9D9" d="M0 0h38v38H0z"/></mask><g mask="url(#a)"><path fill="#33B148" d="M9.5 31.667q-1.98 0-3.365-1.386t-1.386-3.364H1.583V9.5q0-1.306.93-2.237a3.05 3.05 0 0 1 2.236-.93h22.167v6.333h4.75L36.416 19v7.916H33.25q0 1.98-1.385 3.365t-3.365 1.386q-1.978 0-3.364-1.386t-1.386-3.364h-9.5q0 1.978-1.385 3.364t-3.365 1.386m0-3.167q.672 0 1.128-.455.455-.456.455-1.129 0-.672-.455-1.128a1.53 1.53 0 0 0-1.129-.455q-.672 0-1.128.455-.455.456-.455 1.128 0 .674.455 1.129.456.455 1.128.455m-4.75-4.75h1.266a5.5 5.5 0 0 1 1.544-1.148 4.3 4.3 0 0 1 1.94-.436q1.068 0 1.939.436.87.435 1.544 1.148h10.766V9.5h-19zM28.5 28.5q.672 0 1.128-.455.455-.456.455-1.129 0-.672-.455-1.128a1.53 1.53 0 0 0-1.129-.455q-.672 0-1.128.455-.455.456-.455 1.128 0 .674.455 1.129.456.455 1.128.455m-1.584-7.917h6.73l-3.563-4.75h-3.167z"/></g></svg>
